dist/logo.cd13699a.svg

<svg width="184" height="27" viewBox="0 0 184 27" fill="none" xmlns="http://www.w3.org/2000/svg">
<path d="M16.0136 21.0865H7.81939L6.38839 25.7644H0L9.09706 0.723712H14.7188L23.884 25.7644H17.4616L16.0136 21.0865ZM9.25038 16.4257H14.5826L11.908 7.74061L9.25038 16.4257Z" fill="#656980"></path>
<path d="M45.4001 17.2856C45.3206 19.0284 44.855 20.5705 44.0032 21.912C43.1514 23.242 41.9532 24.2739 40.4087 25.0077C38.8755 25.7415 37.1208 26.1084 35.1446 26.1084C31.8851 26.1084 29.3184 25.0363 27.4445 22.8923C25.5706 20.7482 24.6336 17.7213 24.6336 13.8116V12.5733C24.6336 10.1197 25.0538 7.97565 25.8943 6.14117C26.746 4.29522 27.9669 2.8735 29.5569 1.876C31.1469 0.867031 32.9868 0.362549 35.0765 0.362549C38.0861 0.362549 40.5052 1.16513 42.3337 2.77031C44.1622 4.36401 45.2014 6.56539 45.4512 9.37444H39.4887C39.4433 7.84953 39.0629 6.75457 38.3474 6.08957C37.6319 5.42457 36.5416 5.09207 35.0765 5.09207C33.5887 5.09207 32.4984 5.65388 31.8056 6.7775C31.1129 7.90112 30.7494 9.69548 30.7154 12.1606V13.932C30.7154 16.6034 31.0447 18.5125 31.7034 19.659C32.3735 20.8056 33.5206 21.3788 35.1446 21.3788C36.5189 21.3788 37.5694 21.0521 38.2962 20.3985C39.0231 19.745 39.4092 18.7074 39.4547 17.2856H45.4001Z" fill="#656980"></path>
<path d="M67.1888 5.38444H59.7442V25.7644H53.7647V5.38444H46.4563V0.723712H67.1888V5.38444Z" fill="#656980"></path>
<path d="M76.0985 25.7644H70.136V0.723712H76.0985V25.7644Z" fill="#656980"></path>
<path d="M89.8803 18.9539L94.8207 0.723712H101.499L93.1512 25.7644H86.6095L78.3301 0.723712H84.957L89.8803 18.9539Z" fill="#656980"></path>
<path d="M118.705 15.1531H109.301V21.1209H120.408V25.7644H103.322V0.723712H120.442V5.38444H109.301V10.6643H118.705V15.1531Z" fill="#656980"></path>
<path d="M123.454 25.7472V0.706514H129.978C132.647 0.706514 134.663 1.25686 136.026 2.35755C137.4 3.44677 138.087 5.03474 138.087 7.12147C138.087 8.63491 137.707 9.89039 136.946 10.8879C136.185 11.8854 135.112 12.5217 133.726 12.7969C135.294 13.0033 136.6 13.6912 137.644 14.8607C138.689 16.0187 139.212 17.3487 139.212 18.8507C139.212 20.9833 138.525 22.6687 137.15 23.907C135.788 25.1338 133.885 25.7472 131.443 25.7472H123.454ZM124.374 13.3816V24.8185H131.546C133.647 24.8185 135.294 24.2968 136.486 23.2534C137.69 22.1986 138.292 20.7425 138.292 18.8851C138.292 17.3028 137.713 16.0015 136.554 14.9811C135.396 13.9492 133.846 13.416 131.903 13.3816H124.374ZM124.374 12.4529H130.319C132.579 12.4529 134.283 12.0172 135.43 11.1459C136.577 10.263 137.15 8.89862 137.15 7.05267C137.15 3.49837 134.828 1.69255 130.183 1.63522H124.374V12.4529Z" fill="white"></path>
<path d="M162.074 15.1015C162.074 17.2684 161.688 19.1889 160.915 20.8629C160.154 22.5254 159.064 23.8152 157.644 24.7325C156.225 25.6383 154.589 26.0912 152.738 26.0912C149.944 26.0912 147.684 25.0879 145.958 23.0815C144.232 21.075 143.368 18.3691 143.368 14.9639V11.3522C143.368 9.19672 143.749 7.28198 144.51 5.60802C145.282 3.93405 146.378 2.64419 147.798 1.73841C149.229 0.821169 150.864 0.362549 152.704 0.362549C154.555 0.362549 156.191 0.821169 157.61 1.73841C159.041 2.64419 160.143 3.93979 160.915 5.62522C161.688 7.29918 162.074 9.20819 162.074 11.3522V15.1015ZM161.154 11.3178C161.154 8.29095 160.393 5.86599 158.871 4.04298C157.349 2.2085 155.293 1.29126 152.704 1.29126C150.149 1.29126 148.11 2.20276 146.588 4.02578C145.066 5.83733 144.305 8.30815 144.305 11.4382V15.1015C144.305 17.0965 144.646 18.8621 145.328 20.3985C146.02 21.9234 147.003 23.0987 148.275 23.9242C149.547 24.7497 151.035 25.1624 152.738 25.1624C155.328 25.1624 157.377 24.2509 158.888 22.4279C160.398 20.6049 161.154 18.1169 161.154 14.9639V11.3178Z" fill="white"></path>
<path d="M174.373 12.2465L182.38 0.706514H183.539L174.953 12.9689L183.862 25.7472H182.721L174.373 13.6912L165.992 25.7472H164.885L173.794 12.9689L165.208 0.706514H166.367L174.373 12.2465Z" fill="white"></path>
</svg>

<svg width="184" height="27" fill="none" xmlns="http://www.w3.org/2000/svg"><path d="M16.014 21.087H7.819l-1.43 4.677H0L9.097.724h5.622l9.165 25.04h-6.422l-1.448-4.677ZM9.25 16.425h5.333L11.908 7.74 9.25 16.426ZM45.4 17.286c-.08 1.742-.545 3.284-1.397 4.626-.852 1.33-2.05 2.362-3.594 3.096-1.533.733-3.288 1.1-5.264 1.1-3.26 0-5.827-1.072-7.7-3.216-1.874-2.144-2.811-5.17-2.811-9.08v-1.239c0-2.453.42-4.597 1.26-6.432.852-1.846 2.073-3.268 3.663-4.265 1.59-1.009 3.43-1.513 5.52-1.513 3.01 0 5.428.802 7.257 2.407 1.828 1.594 2.867 3.795 3.117 6.604H39.49c-.046-1.524-.426-2.62-1.142-3.284-.715-.665-1.805-.998-3.27-.998-1.488 0-2.579.562-3.271 1.686-.693 1.123-1.057 2.917-1.09 5.383v1.771c0 2.671.329 4.58.987 5.727.67 1.147 1.818 1.72 3.442 1.72 1.374 0 2.424-.327 3.151-.98.727-.654 1.113-1.692 1.159-3.113H45.4ZM67.189 5.384h-7.445v20.38h-5.98V5.384h-7.308V.724H67.19v4.66ZM76.099 25.764h-5.963V.724h5.963v25.04ZM89.88 18.954 94.82.724h6.679l-8.348 25.04H86.61L78.33.724h6.627l4.923 18.23ZM118.705 15.153h-9.404v5.968h11.107v4.643h-17.086V.724h17.12v4.66h-11.141v5.28h9.404v4.49Z" fill="#656980"></path><path d="M123.454 25.747V.707h6.524c2.669 0 4.685.55 6.048 1.65 1.374 1.09 2.061 2.678 2.061 4.764 0 1.514-.38 2.77-1.141 3.767-.761.997-1.834 1.634-3.22 1.909 1.568.206 2.874.894 3.918 2.064 1.045 1.158 1.568 2.488 1.568 3.99 0 2.132-.687 3.818-2.062 5.056-1.362 1.227-3.265 1.84-5.707 1.84h-7.989Zm.92-12.365v11.437h7.172c2.101 0 3.748-.522 4.94-1.566 1.204-1.054 1.806-2.51 1.806-4.368 0-1.582-.579-2.884-1.738-3.904-1.158-1.032-2.708-1.565-4.651-1.6h-7.529Zm0-.93h5.945c2.26 0 3.964-.435 5.111-1.306 1.147-.883 1.72-2.247 1.72-4.093 0-3.555-2.322-5.36-6.967-5.418h-5.809v10.818ZM162.074 15.101c0 2.167-.386 4.088-1.159 5.762-.761 1.662-1.851 2.952-3.271 3.87-1.419.905-3.055 1.358-4.906 1.358-2.794 0-5.054-1.003-6.78-3.01-1.726-2.006-2.59-4.712-2.59-8.117v-3.612c0-2.155.381-4.07 1.142-5.744.772-1.674 1.868-2.964 3.288-3.87 1.431-.917 3.066-1.375 4.906-1.375 1.851 0 3.487.458 4.906 1.375 1.431.906 2.533 2.202 3.305 3.887.773 1.674 1.159 3.583 1.159 5.727v3.75Zm-.92-3.783c0-3.027-.761-5.452-2.283-7.275-1.522-1.835-3.578-2.752-6.167-2.752-2.555 0-4.594.912-6.116 2.735-1.522 1.811-2.283 4.282-2.283 7.412v3.663c0 1.995.341 3.761 1.023 5.297.692 1.525 1.675 2.7 2.947 3.526 1.272.826 2.76 1.238 4.463 1.238 2.59 0 4.639-.911 6.15-2.734 1.51-1.823 2.266-4.311 2.266-7.464v-3.646ZM174.373 12.246 182.38.707h1.159l-8.586 12.263 8.909 12.778h-1.141l-8.348-12.056-8.381 12.056h-1.107l8.909-12.778L165.208.707h1.159l8.006 11.54Z" fill="#fff"></path></svg>
